X: 1012
T: Marygold.
%R: jig
B: Henry Playford "Apollo's Banquet", London 1687 (5th Edition)
F: https://archive.org/details/apollosbanquetco01rugg
Z: 2017 John Chambers <jc:trillian.mit.edu>
M: 6/4
L: 1/4
K: D
% - - - - - - - - - -
A |\
F>ED d>ef | B>cd ecA |\
F>ED def | B3 A2 :: e |\
c>BA f>ed | BG2 g>ab |\
c>BA af2 | e3 d2 |]
% - - - - - - - - - -

%%sep 1 1 500
%%sep 1 1 500

